X:1
T:Joy and Light
T:Joseph Barnby
T:Joy and Light
T:Public Domain
T:Public Domain
C:Joseph Barnby
Z:Public Domain
%%score ( 1 2 ) ( 3 4 )
L:1/8
M:6/8
K:C
V:1 treble 
V:2 treble 
V:3 bass 
V:4 bass 
V:1
 E2 E [^DA]3 | [EG]2 [EG] [Fc]3 | [Ec][EB][EA] [DG]2 [D^F] | ([D-A]3 [DG]2) z | E3 [^DA]3 | %5
w: 1.~Joy and light,|light, O- ver|the crys- tal sea; Come,|come, *|soft and|
w: 2.~Love and rest,|rest, Car- ol|in sil- ver tone; Glad|songs, *|pure and|
w: 3.~Voice di- vine,|vine, Speak, and|our souls shall hear; Sweet,|sweet *|words are|
 [EG]2 E [^FA]3 | [Gd][GB][Gc] [GA]2 [^FB] | ([FA]3 G2) z | [FG][FB][FA] (GA)[FG] | %9
w: O- ver the|tal sea. Come on your|snow- *|pin- ions white, Come * in|
w: Car- ol in|ver tone. Come from the|fade- *|flowers that grow, Come * from|
w: Speak, and our|shall hear. Tell of a|cloud- *|re- gion fair, Tell * of|
 (Gc)[^DA] [EG]3 | [FG][FB][FA] (GA)[FG] | (Gc)[^D^F] [EG]3 | [Cc][Ec][Ac] [^Gc]2 [GB] | %13
w: si- * lent calm|night, Watch when the * pale|keep, * Bring the|bled one, Bring the wea-|
w: spark- * ling streams|flow, Come in the * mid-|deep, * Bring the|bled one, Bring the wea-|
w: ma- * ny man-|there, Speak to the * hearts|weep, * Bring the|bled one, Bring the wea-|
 (A3 [C_A]3) | [CG]2 [EG] [DG]>[DA][DG] | [CG]2 [CG] [FG]>[FA][FG] | E3 F3 | ([Ec]3- [Ec]2) z |] %18
w: ry *|sleep. * * * *||||
w: ry *|sleep. * * * *||||
w: ry *|sleep. * * * *||||
V:2
 E2 E x3 | x6 | x6 | x6 | E3 x3 | x2 E x3 | x6 | x3 G2 x | x3 F2 x | E2 x4 | x3 F2 x | E2 x4 | x6 | %13
w: joy and||||bright,|crys-||y|the|of|stars|trou-||
w: love and||||blest,|sil-||less|the|that|night|trou-||
w: voice di-||||Thine,|souls||less|the|sions|that|trou-||
 _A3 x3 | x6 | x6 | c6- | x6 |] %18
w: one|||||
w: one|||||
w: one|||||
V:3
 [C,G,]2 [C,G,] [C,^F,]3 | [C,G,]2 [C,G,] [C,A,]3 | [C,G,][C,D][C,C] [D,B,]2 [D,A,] | %3
 ([G,-C]3 [G,B,]2) z | [C,G,]3 [C,^F,]3 | [C,G,]2 [C,E] [CD]3 | [B,D][G,D][E,C] [C,E]2 [D,D] | %7
 ([G,-C]3 [G,B,]2) z | [B,D][G,B,][A,C] ([B,D][A,C])[B,D] | CE,[^F,C] [G,C]3 | %10
 [G,,B,][G,,G,][G,,A,] (B,A,)[G,,B,] | (CG,)[C,A,] [C,G,]3 | [A,,A,][A,,C][C,E] [E,E]2 [E,D] | %13
 ([F,C]3 [^F,_E]3) | [G,E]2 [G,C] [F,B,]>[F,B,][F,B,] | [E,C]2 [_E,C] [D,B,]>[D,B,][_D,_B,] | %16
 _B,3 A,2 _A, | ([C,G,]3- [C,G,]2) z |] %18
V:4
 x6 | x6 | x6 | x6 | x6 | x6 | x6 | x6 | x6 | C2 x4 | x3 G,,2 x | C,2 x4 | x6 | x6 | x6 | x6 | %16
 C,6- | x6 |] %18

